.local/share/icons/Gruvbox-Plus-Dark/mimetypes/scalable/application-ascii.svg

<svg width="256" height="256" viewBox="0 0 256 256" fill="none" xmlns="http://www.w3.org/2000/svg">
<g opacity="0.4" filter="url(#filter0_f)">
<path d="M55.0839 15.5636H155.608L216.009 75.7129L216.011 224.609C216.011 233.52 208.749 240.737 199.838 240.737H55.0838C46.1734 240.737 39 233.564 39 224.654V31.6474C39 22.737 46.1734 15.5636 55.0838 15.5636H55.0839Z" fill="#282828"/>
</g>
<path d="M55.0839 15H155.608L216.009 75.1493L216.011 224.045C216.011 232.956 208.749 240.174 199.838 240.174H55.0838C46.1734 240.174 39 233 39 224.09V31.0838C39 22.1734 46.1734 15 55.0838 15H55.0839Z" fill="#ebdbb2"/>
<path fill-rule="evenodd" clip-rule="evenodd" d="M155.609 22.9787H55.0839C50.58 22.9787 46.9787 26.5799 46.9787 31.0838V224.09C46.9787 228.594 50.5799 232.195 55.0838 232.195H199.838C204.371 232.195 208.032 228.521 208.032 224.046V75.1493L155.609 22.9787ZM155.608 15H55.0839C46.1735 15 39 22.1734 39 31.0838V224.09C39 233 46.1734 240.174 55.0838 240.174H199.838C208.749 240.174 216.011 232.956 216.011 224.045L216.009 75.1493L155.608 15Z" fill="url(#paint0_linear)"/>
<path fill-rule="evenodd" clip-rule="evenodd" d="M93.604 140.57H88.753L87.009 135.039H78.595L76.851 140.569H72L80.68 115.431H84.925L93.605 140.569L93.604 140.57ZM82.158 123.69L79.808 131.16H85.796L83.446 123.69C83.1933 122.924 82.9787 121.991 82.802 120.89C82.4987 122.35 82.284 123.283 82.158 123.69ZM106.453 141C104.305 141 102.372 140.413 100.653 139.24C98.935 138.067 97.7223 136.499 97.015 134.536L101.109 133.099C101.69 134.272 102.492 135.212 103.515 135.919C104.538 136.625 105.644 136.978 106.832 136.978C107.994 136.978 108.929 136.691 109.637 136.116C110.344 135.541 110.697 134.715 110.697 133.638C110.697 132.728 110.217 131.92 109.257 131.214C108.297 130.507 106.958 129.795 105.24 129.077C104.153 128.622 103.282 128.227 102.625 127.892C101.968 127.557 101.228 127.091 100.407 126.492C99.5863 125.893 98.9737 125.187 98.569 124.372C98.165 123.559 97.963 122.649 97.963 121.644C97.963 119.777 98.7147 118.202 100.218 116.921C101.721 115.64 103.699 115 106.15 115C108.095 115 109.794 115.503 111.247 116.508C112.7 117.514 113.667 118.795 114.147 120.351L110.091 121.644C109.182 119.896 107.779 119.022 105.884 119.022C104.899 119.022 104.09 119.261 103.459 119.74C102.827 120.219 102.511 120.878 102.511 121.715C102.511 121.907 102.536 122.093 102.587 122.272C102.638 122.452 102.726 122.62 102.852 122.775C102.979 122.93 103.099 123.074 103.212 123.205C103.325 123.337 103.502 123.481 103.742 123.637C103.982 123.792 104.184 123.918 104.349 124.014C104.514 124.109 104.76 124.235 105.089 124.391C105.417 124.546 105.669 124.66 105.846 124.732C106.023 124.804 106.314 124.93 106.718 125.109C107.123 125.289 107.413 125.415 107.59 125.486C108.651 125.941 109.536 126.366 110.243 126.761C110.95 127.156 111.734 127.677 112.593 128.323C113.452 128.97 114.109 129.736 114.563 130.622C115.018 131.507 115.246 132.477 115.246 133.53C115.246 135.829 114.393 137.648 112.688 138.989C110.982 140.33 108.904 141 106.453 141V141ZM129.952 140.964C128.461 140.964 127.116 140.713 125.915 140.21C124.715 139.707 123.717 139.043 122.921 138.217C122.125 137.39 121.462 136.409 120.931 135.272C120.4 134.135 120.021 132.961 119.794 131.752C119.567 130.543 119.454 129.293 119.454 128C119.454 126.42 119.65 124.894 120.041 123.421C120.432 121.949 121.032 120.572 121.841 119.291C122.65 118.011 123.749 116.982 125.138 116.203C126.528 115.425 128.133 115.036 129.952 115.036C132.024 115.036 133.755 115.539 135.145 116.544C136.534 117.549 137.545 118.794 138.177 120.279L134.159 122.11C133.603 121.105 133.003 120.351 132.359 119.848C131.714 119.345 130.912 119.094 129.952 119.094C128.587 119.094 127.45 119.573 126.541 120.53C125.631 121.488 124.999 122.607 124.646 123.888C124.293 125.169 124.116 126.539 124.116 128C124.116 130.37 124.621 132.447 125.631 134.23C126.642 136.014 128.082 136.906 129.951 136.906C131.72 136.906 133.136 135.829 134.197 133.674L138.29 135.146C136.623 139.025 133.843 140.964 129.952 140.964ZM160.652 115.431V119.201H155.081V136.798H160.652V140.569H145.037V136.799H150.571V119.202H145.037V115.431H160.652V115.431ZM184 115.431V119.201H178.428V136.798H184V140.569H168.384V136.799H173.918V119.202H168.384V115.431H184V115.431Z" fill="url(#paint1_linear)"/>
<path opacity="0.25" d="M155.608 17V61.2306C155.608 70.141 162.867 77.1605 171.777 77.1605L216.009 77.1493V75.1493L155.608 17Z" fill="#282828"/>
<path d="M155.608 15V59.2306C155.608 68.141 162.867 75.1605 171.777 75.1605L216.009 75.1493L155.608 15Z" fill="url(#paint2_linear)"/>
<defs>
<filter id="filter0_f" x="23.8778" y="0.441412" width="207.255" height="255.418" filterUnits="userSpaceOnUse" color-interpolation-filters="sRGB">
<feFlood flood-opacity="0" result="BackgroundImageFix"/>
<feBlend mode="normal" in="SourceGraphic" in2="BackgroundImageFix" result="shape"/>
<feGaussianBlur stdDeviation="7.5611" result="effect1_foregroundBlur"/>
</filter>
<linearGradient id="paint0_linear" x1="39" y1="15" x2="39" y2="240.174" gradientUnits="userSpaceOnUse">
<stop offset="1e-07" stop-color="#83a598"/>
<stop offset="1" stop-color="#076678"/>
</linearGradient>
<linearGradient id="paint1_linear" x1="72" y1="115" x2="72" y2="141" gradientUnits="userSpaceOnUse">
<stop offset="1e-07" stop-color="#83a598"/>
<stop offset="1" stop-color="#076678"/>
</linearGradient>
<linearGradient id="paint2_linear" x1="155.608" y1="15" x2="155.608" y2="75.1605" gradientUnits="userSpaceOnUse">
<stop offset="1e-07" stop-color="#83a598"/>
<stop offset="1" stop-color="#076678"/>
</linearGradient>
</defs>
</svg>

<svg width="256" height="256" fill="none" version="1.1" viewBox="0 0 256 256" xmlns="http://www.w3.org/2000/svg">
  <path d="m55.08 15h100.5l60.4 60.15 2e-3 148.9c0 8.911-7.262 16.13-16.17 16.13h-144.8c-8.91 0-16.08-7.174-16.08-16.08v-193c0-8.91 7.173-16.08 16.08-16.08h1e-4z" fill="#ebdbb2"/>
  <path d="m155.6 22.98h-100.5c-4.504 0-8.105 3.601-8.105 8.105v193c0 4.504 3.601 8.105 8.105 8.105h144.8c4.533 0 8.194-3.674 8.194-8.149v-148.9l-52.42-52.17zm-1e-3 -7.979h-100.5c-8.91 0-16.08 7.173-16.08 16.08v193c0 8.91 7.173 16.08 16.08 16.08h144.8c8.911 0 16.17-7.218 16.17-16.13l-2e-3 -148.9-60.4-60.15z" clip-rule="evenodd" fill="url(#paint0_linear)" fill-rule="evenodd"/>
  <path d="m93.6 140.6h-4.851l-1.744-5.531h-8.414l-1.744 5.53h-4.851l8.68-25.14h4.245l8.68 25.14-1e-3 1e-3zm-11.45-16.88-2.35 7.47h5.988l-2.35-7.47c-0.2527-0.766-0.4673-1.699-0.644-2.8-0.3033 1.46-0.518 2.393-0.644 2.8zm24.3 17.31c-2.148 0-4.081-0.587-5.8-1.76-1.718-1.173-2.931-2.741-3.638-4.704l4.094-1.437c0.581 1.173 1.383 2.113 2.406 2.82 1.023 0.706 2.129 1.059 3.317 1.059 1.162 0 2.097-0.287 2.805-0.862 0.707-0.575 1.06-1.401 1.06-2.478 0-0.91-0.48-1.718-1.44-2.424-0.96-0.707-2.299-1.419-4.017-2.137-1.087-0.455-1.958-0.85-2.615-1.185s-1.397-0.801-2.218-1.4c-0.8207-0.599-1.433-1.305-1.838-2.12-0.404-0.813-0.606-1.723-0.606-2.728 0-1.867 0.7517-3.442 2.255-4.723 1.503-1.281 3.481-1.921 5.932-1.921 1.945 0 3.644 0.503 5.097 1.508 1.453 1.006 2.42 2.287 2.9 3.843l-4.056 1.293c-0.909-1.748-2.312-2.622-4.207-2.622-0.985 0-1.794 0.239-2.425 0.718-0.632 0.479-0.948 1.138-0.948 1.975 0 0.192 0.025 0.378 0.076 0.557 0.051 0.18 0.139 0.348 0.265 0.503 0.127 0.155 0.247 0.299 0.36 0.43 0.113 0.132 0.29 0.276 0.53 0.432 0.24 0.155 0.442 0.281 0.607 0.377 0.165 0.095 0.411 0.221 0.74 0.377 0.328 0.155 0.58 0.269 0.757 0.341s0.468 0.198 0.872 0.377c0.405 0.18 0.695 0.306 0.872 0.377 1.061 0.455 1.946 0.88 2.653 1.275s1.491 0.916 2.35 1.562c0.859 0.647 1.516 1.413 1.97 2.299 0.455 0.885 0.683 1.855 0.683 2.908 0 2.299-0.853 4.118-2.558 5.459-1.706 1.341-3.784 2.011-6.235 2.011zm23.5-0.036c-1.491 0-2.836-0.251-4.037-0.754-1.2-0.503-2.198-1.167-2.994-1.993-0.796-0.827-1.459-1.808-1.99-2.945s-0.91-2.311-1.137-3.52-0.34-2.459-0.34-3.752c0-1.58 0.196-3.106 0.587-4.579 0.391-1.472 0.991-2.849 1.8-4.13 0.809-1.28 1.908-2.309 3.297-3.088 1.39-0.778 2.995-1.167 4.814-1.167 2.072 0 3.803 0.503 5.193 1.508 1.389 1.005 2.4 2.25 3.032 3.735l-4.018 1.831c-0.556-1.005-1.156-1.759-1.8-2.262-0.645-0.503-1.447-0.754-2.407-0.754-1.365 0-2.502 0.479-3.411 1.436-0.91 0.958-1.542 2.077-1.895 3.358s-0.53 2.651-0.53 4.112c0 2.37 0.505 4.447 1.515 6.23 1.011 1.784 2.451 2.676 4.32 2.676 1.769 0 3.185-1.077 4.246-3.232l4.093 1.472c-1.667 3.879-4.447 5.818-8.338 5.818zm30.7-25.53v3.77h-5.571v17.6h5.571v3.771h-15.62v-3.77h5.534v-17.6h-5.534v-3.771h15.62zm23.35 0v3.77h-5.572v17.6h5.572v3.771h-15.62v-3.77h5.534v-17.6h-5.534v-3.771h15.62z" clip-rule="evenodd" fill="url(#paint1_linear)" fill-rule="evenodd"/>
  <path d="m155.6 17v44.23c0 8.91 7.259 15.93 16.17 15.93l44.23-0.0112v-2l-60.4-58.15z" fill="#282828" opacity=".25"/>
  <path d="m155.6 15v44.23c0 8.91 7.259 15.93 16.17 15.93l44.23-0.0112-60.4-60.15z" fill="url(#paint2_linear)"/>
  <defs>
    <linearGradient id="paint0_linear" x1="39" x2="39" y1="15" y2="240.2" gradientUnits="userSpaceOnUse">
      <stop stop-color="#83a598" offset="1e-7"/>
      <stop stop-color="#076678" offset="1"/>
    </linearGradient>
    <linearGradient id="paint1_linear" x1="72" x2="72" y1="115" y2="141" gradientUnits="userSpaceOnUse">
      <stop stop-color="#83a598" offset="1e-7"/>
      <stop stop-color="#076678" offset="1"/>
    </linearGradient>
    <linearGradient id="paint2_linear" x1="155.6" x2="155.6" y1="15" y2="75.16" gradientUnits="userSpaceOnUse">
      <stop stop-color="#83a598" offset="1e-7"/>
      <stop stop-color="#076678" offset="1"/>
    </linearGradient>
  </defs>
</svg>
